X: 21070
T: Jurby Coast Road
R: reel
M: 4/4
K: Adorian
cBBA AGAB|cAed BcAB|BAGF G2>A2|BAGF GA B/c/d|
cBBA AGAB|cAed Bcde|dGge dABd|edBc A4:|
|:edBc A2ed|edge dBAG|dBAB G2>B2|dGBd ABdB|
edBc A2ed|edge dBAG|edge dABd|BAFG E4:|

